svg/contacts.svg

<?xml version="1.0" encoding="UTF-8" standalone="no"?>
<svg
   xmlns:dc="http://purl.org/dc/elements/1.1/"
   xmlns:cc="http://creativecommons.org/ns#"
   xmlns:rdf="http://www.w3.org/1999/02/22-rdf-syntax-ns#"
   xmlns:svg="http://www.w3.org/2000/svg"
   xmlns="http://www.w3.org/2000/svg"
   viewBox="0 0 192 192"
   height="192"
   width="192"
   id="svg5073"
   version="1.1">
  <metadata
     id="metadata5079">
    <rdf:RDF>
      <cc:Work
         rdf:about="">
        <dc:format>image/svg+xml</dc:format>
        <dc:type
           rdf:resource="http://purl.org/dc/dcmitype/StillImage" />
        <dc:title></dc:title>
      </cc:Work>
    </rdf:RDF>
  </metadata>
  <defs
     id="defs5077" />
  <path
     id="rect5646"
     d="M 40.521484 15.773438 C 33.892317 15.773438 28.554688 21.111067 28.554688 27.740234 L 28.554688 164.25977 C 28.554688 170.88893 33.892317 176.22656 40.521484 176.22656 L 151.47852 176.22656 C 158.10768 176.22656 163.44531 170.88893 163.44531 164.25977 L 163.44531 27.740234 C 163.44531 21.111067 158.10768 15.773438 151.47852 15.773438 L 40.521484 15.773438 z M 96 56.384766 A 20.124647 20.124647 0 0 1 116.125 76.509766 A 20.124647 20.124647 0 0 1 96 96.634766 A 20.124647 20.124647 0 0 1 75.875 76.509766 A 20.124647 20.124647 0 0 1 96 56.384766 z M 96 103.70508 A 41.065155 13.688386 0 0 1 137.06445 117.39453 L 137.06445 135.61523 L 54.935547 135.61523 L 54.935547 117.39453 A 41.065155 13.688386 0 0 1 96 103.70508 z "
     style="opacity:1;fill:#ffffff;fill-opacity:1;stroke:none;stroke-opacity:1" />
</svg>

<svg xmlns="http://www.w3.org/2000/svg" viewBox="0 0 192 192" height="192" width="192">
    <path d="M40.52 15.773A11.94 11.94 0 0 0 28.556 27.74v136.52a11.94 11.94 0 0 0 11.966 11.967h110.96a11.94 11.94 0 0 0 11.965-11.967V27.74a11.94 11.94 0 0 0-11.966-11.967H40.52zM96 56.385a20.125 20.125 0 0 1 20.125 20.125A20.125 20.125 0 0 1 96 96.635 20.125 20.125 0 0 1 75.875 76.51 20.125 20.125 0 0 1 96 56.385zm0 47.32a41.065 13.688 0 0 1 41.064 13.69v18.22H54.936v-18.22A41.065 13.688 0 0 1 96 103.705z" fill="#fff"/>
</svg>
